tracks/idris.svg

<svg width="96" height="96" viewBox="0 0 96 96" fill="none" xmlns="http://www.w3.org/2000/svg">
<path d="M44 2.30935C46.4752 0.880283 49.5248 0.880284 52 2.30935L85.5692 21.6905C88.0444 23.1196 89.5692 25.7606 89.5692 28.6187V67.3811C89.5692 70.2393 88.0444 72.8803 85.5692 74.3093L52 93.6905C49.5248 95.1196 46.4752 95.1196 44 93.6905L10.4308 74.3093C7.95558 72.8803 6.43079 70.2393 6.43079 67.3811V28.6187C6.43079 25.7606 7.95558 23.1196 10.4308 21.6905L44 2.30935Z" fill="white"/>
<path fill-rule="evenodd" clip-rule="evenodd" d="M84.1907 22.9024L51.5701 4.06896C49.3322 2.77689 46.575 2.77689 44.337 4.06896L11.7165 22.9024C9.47853 24.1945 8.09991 26.5824 8.09991 29.1665V66.8335C8.09991 69.4176 9.47853 71.8055 11.7165 73.0975L44.337 91.931C46.575 93.2231 49.3322 93.2231 51.5701 91.931L84.1907 73.0975C86.4286 71.8055 87.8072 69.4176 87.8072 66.8335V29.1665C87.8072 26.5824 86.4286 24.1945 84.1907 22.9024ZM53.1201 1.38436C49.923 -0.461454 45.9841 -0.461455 42.7871 1.38436L10.1665 20.2178C6.96946 22.0637 5 25.4749 5 29.1665V66.8335C5 70.5251 6.96946 73.9363 10.1665 75.7821L42.7871 94.6156C45.9841 96.4614 49.923 96.4614 53.1201 94.6156L85.7406 75.7821C88.9377 73.9363 90.9071 70.5251 90.9071 66.8335V29.1665C90.9071 25.4749 88.9377 22.0637 85.7406 20.2178L53.1201 1.38436Z" fill="#8A0819"/>
<path d="M43.7723 31.1399C49.9214 33.0008 51.4944 34.5339 53.6563 40.0901C53.237 33.3153 50.5256 30.491 43.7723 31.1399C43.7723 31.1399 45.3564 25.4275 43.7723 31.1399Z" fill="#8A0819"/>
<path d="M35.25 41.7956C39.2419 43.0249 43.8772 44.0072 45.59 51.6338C46.2971 42.1193 41.7924 41.6345 35.25 41.7956C35.25 41.7956 42.8774 16.3696 35.25 41.7956Z" fill="#8A0819"/>
<path d="M37.9473 35.7287C43.9456 36.9683 47.7693 38.597 50.0041 46.3377C50.5168 36.3517 45.0359 35.349 37.9473 35.7287C37.9473 35.7287 44.5431 24.6903 37.9473 35.7287Z" fill="#8A0819"/>
<path d="M45.813 24C78.546 45.3436 38.5421 45.7207 47.2434 70.5L52.3942 72C38.2042 52.7632 83.977 42.8746 45.813 24Z" fill="#8A0819"/>
</svg>

<svg width="96" height="96" fill="none" xmlns="http://www.w3.org/2000/svg">
  <path d="M44 2.3093a8 8 0 018 0l33.5692 19.3812a8 8 0 014 6.9282v38.7624a7.9998 7.9998 0 01-4 6.9282L52 93.6905a7.9998 7.9998 0 01-8 0L10.4308 74.3093a7.9998 7.9998 0 01-4-6.9282V28.6187a8 8 0 014-6.9282L44 2.3093z" fill="#fff"/>
  <path fill-rule="evenodd" clip-rule="evenodd" d="M84.1907 22.9024L51.5701 4.069a7.233 7.233 0 00-7.2331 0L11.7165 22.9024a7.2332 7.2332 0 00-3.6166 6.2641v37.667a7.233 7.233 0 003.6166 6.264L44.337 91.931a7.233 7.233 0 007.2331 0l32.6206-18.8335a7.233 7.233 0 003.6165-6.264v-37.667a7.2333 7.2333 0 00-3.6165-6.2641zM53.1201 1.3844a10.333 10.333 0 00-10.333 0L10.1665 20.2178A10.3332 10.3332 0 005 29.1665v37.667a10.333 10.333 0 005.1665 8.9486l32.6206 18.8335a10.333 10.333 0 0010.333 0l32.6205-18.8335a10.333 10.333 0 005.1666-8.9486v-37.667a10.3332 10.3332 0 00-5.1666-8.9487L53.1201 1.3844z" fill="#8A0819"/>
  <path d="M43.7723 31.1399c6.1491 1.8609 7.7221 3.394 9.884 8.9502-.4193-6.7748-3.1307-9.5991-9.884-8.9502 0 0 1.5841-5.7124 0 0zM35.25 41.7956c3.9919 1.2293 8.6272 2.2116 10.34 9.8382.7071-9.5145-3.7976-9.9993-10.34-9.8382 0 0 7.6274-25.426 0 0z" fill="#8A0819"/>
  <path d="M37.9473 35.7287c5.9983 1.2396 9.822 2.8683 12.0568 10.609.5127-9.986-4.9682-10.9887-12.0568-10.609 0 0 6.5958-11.0384 0 0z" fill="#8A0819"/>
  <path d="M45.813 24c32.733 21.3436-7.2709 21.7207 1.4304 46.5l5.1508 1.5c-14.19-19.2368 31.5828-29.1254-6.5812-48z" fill="#8A0819"/>
</svg>
